logos/recoil.svg

<?xml version="1.0" encoding="UTF-8"?>
<svg width="512px" height="182px" viewBox="0 0 512 182" version="1.1" xmlns="http://www.w3.org/2000/svg" preserveAspectRatio="xMidYMid">
    <title>Recoil</title>
    <g>
        <path d="M38.9404276,0 C47.403715,0 54.2587768,6.8550618 54.2587768,15.3183492 C54.2587768,21.6272174 50.4364386,27.0494607 44.9764057,29.4004356 L44.8104511,29.4707349 L44.8104511,35.9237403 C44.8104511,42.1530013 49.4406031,47.4562319 55.5994934,48.3223977 L55.7865912,48.3472833 L57.6360506,48.5885172 C67.6472553,49.8549949 75.406944,57.0518046 77.3971232,66.9423923 C79.3873024,76.83298 75.0450932,86.4823339 66.3003663,91.5482446 C62.3852596,93.802397 58.1200689,95.1813392 53.6195757,95.6468107 L53.3943555,95.6693228 L25.5921547,98.2826895 C22.757657,98.5440262 20.0839819,99.4084475 17.611335,100.835748 C12.565527,103.750657 11.5804888,108.796465 12.344396,112.535589 C13.1006641,116.237323 15.9257235,120.451328 21.5802984,121.237445 L23.6019755,121.501447 C35.7818724,123.013983 44.9866504,133.33366 45.1695279,145.574948 L45.1723019,145.946477 L45.1723019,151.937117 C50.539755,154.30925 54.2989824,159.696806 54.2989824,165.948783 C54.2989824,174.412071 47.4439206,181.267133 38.9806332,181.267133 C30.5173458,181.267133 23.662284,174.412071 23.662284,165.948783 C23.662284,159.659817 27.4649194,154.237773 32.9050525,151.8868 L33.070404,151.816501 L33.070404,145.946477 C33.070404,139.717216 28.440252,134.413985 22.2813617,133.54782 L22.094264,133.522934 L20.2448045,133.2817 C10.2335999,132.015222 2.47391114,124.818413 0.483731905,114.927825 C-1.52655015,105.037237 2.83576191,95.3878834 11.5804888,90.3219726 C15.4955955,88.0678203 19.7607863,86.6888781 24.2612794,86.2234066 L24.4864996,86.2008944 L52.2887004,83.5875277 C55.1231981,83.326191 57.7968732,82.4617698 60.2695201,81.0344695 C65.3153281,78.1195605 66.3003663,73.0737526 65.5364591,69.334628 C64.780191,65.6328946 61.9551316,61.4188891 56.3005567,60.6327723 L54.2788796,60.36877 C42.0989827,58.8562338 32.8942048,48.5365574 32.7113272,36.2952695 L32.7085532,35.9237403 L32.7085532,29.3099123 C27.3612029,26.9176767 23.6220783,21.5502236 23.6220783,15.3183492 C23.6220783,6.8550618 30.4771401,0 38.9404276,0 Z M57.3546112,102.504282 L65.9385155,111.912402 C72.3269908,118.937735 75.8782667,127.992453 75.9486533,137.45758 L75.9497201,137.744526 L63.8277194,137.744526 C63.8277194,131.256542 61.4436837,125.044396 57.1242444,120.219917 L56.9927604,120.074147 L42.3981127,104.072302 L54.0577486,102.966647 L54.4262727,102.925641 C55.2996807,102.826417 56.1716942,102.711854 57.0323971,102.56212 L57.3546112,102.504282 Z M12.9876863,43.6633262 C12.9876863,50.1513105 15.371722,56.3634559 19.6911612,61.187935 L19.8226452,61.3337054 L34.4574986,77.3757562 L23.6823868,78.401 L23.3623063,78.4302621 C22.1888122,78.5427903 21.0175324,78.7128911 19.8728245,78.9405645 L19.5613086,79.0040846 L10.8969929,69.4954505 C4.5085176,62.4900196 0.957241781,53.4157974 0.886855112,43.9502781 L0.885788316,43.6633262 L12.9876863,43.6633262 Z" fill="#1C1E21"></path>
        <path d="M181.00706,47.7441987 L181.244009,47.7477289 L181.484136,47.7534819 C185.468983,47.8669901 192.500277,48.9624859 198.215075,54.6193633 C202.135125,58.4791049 204.567566,63.9068664 205.110342,69.8975069 C205.612912,75.606708 204.366538,81.2757034 201.572246,85.8591464 C196.815717,93.7203544 188.926448,96.4785438 185.648218,97.3131513 L185.231065,97.4187685 L192.968238,107.188239 C199.68258,114.46546 203.361397,123.893683 203.361397,133.703859 L203.361397,137.724423 L191.721863,137.724423 L191.721863,133.703859 C191.721863,126.748283 189.088394,120.09425 184.28382,114.947928 L184.122997,114.787105 L173.106652,100.896056 L173.911199,100.259461 C170.086793,101.19977 166.3236,102.142319 162.634511,103.069917 L158.41149,104.13261 C153.385785,105.399088 148.239463,106.705771 142.932318,108.012455 L142.811701,137.724423 L131.152065,137.684218 L131.373196,63.4243987 C131.393299,54.9008028 138.429286,47.9854326 147.073499,47.9854326 L147.133808,47.9854326 C151.899924,48.0352526 156.542574,47.9753242 161.073089,47.9076418 L167.106502,47.8174809 C171.59778,47.7516927 176.217177,47.6954881 181.00706,47.7441987 Z M168.352537,59.4606288 L160.108533,59.5833203 C155.878663,59.6438462 151.529892,59.6909029 147.053396,59.6450685 C144.842086,59.6651713 143.052935,61.373911 143.032832,63.4646044 L142.932318,95.990968 L144.640742,95.5648835 L146.481524,95.1039551 C149.540624,94.3367044 152.554868,93.575279 155.516684,92.8348252 L157.11067,92.4301483 C162.706995,91.0108647 168.484751,89.5624356 174.413335,88.1307652 L182.845575,85.9972933 L182.96289,85.9663849 C184.925038,85.4402389 189.114994,83.8604557 191.561041,79.8283003 C194.717184,74.6216698 193.993482,66.8820839 189.972918,62.9017254 C186.868239,59.8368494 182.640501,59.4318479 180.898268,59.4045486 L180.846238,59.4038346 C177.127871,59.3648308 173.468364,59.3930944 169.88403,59.439683 L168.352537,59.4606288 Z M286.767999,135.694039 L246.059787,135.694039 C232.028019,135.694039 220.609617,124.275636 220.609617,110.243868 L220.609617,72.9330328 C220.609617,58.9012641 232.028019,47.4828621 246.059787,47.4828621 L267.831142,47.4828621 C281.862911,47.4828621 293.281313,58.9012641 293.281313,72.9330328 L293.281313,78.8030564 C293.281313,89.5982711 284.49638,98.3832036 273.701166,98.3832036 L232.269252,98.3832036 L232.269252,110.263971 C232.269252,117.862837 238.460921,124.054505 246.059787,124.054505 L286.767999,124.054505 L286.767999,135.694039 Z M232.269252,86.7235677 L273.721268,86.7235677 C278.08358,86.7235677 281.64178,83.1653685 281.64178,78.8030564 L281.64178,72.9330328 C281.64178,65.3341667 275.450111,59.142498 267.851245,59.142498 L246.059787,59.142498 C238.460921,59.142498 232.269252,65.3341667 232.269252,72.9330328 L232.269252,86.7235677 Z M351.257847,136.658974 L329.486493,136.658974 C315.454724,136.658974 304.036322,125.240572 304.036322,111.208803 L304.036322,73.8778654 C304.036322,59.8460967 315.454724,48.4276946 329.486493,48.4276946 L351.257847,48.4276946 C365.289616,48.4276946 376.708018,59.8460967 376.708018,73.8778654 L376.708018,79.7076834 L365.048382,79.7076834 L365.048382,73.8778654 C365.048382,66.2789992 358.856713,60.0873305 351.257847,60.0873305 L329.486493,60.0873305 C321.887626,60.0873305 315.695958,66.2789992 315.695958,73.8778654 L315.695958,111.208803 C315.695958,118.807669 321.887626,124.999338 329.486493,124.999338 L351.257847,124.999338 C358.856713,124.999338 365.048382,118.807669 365.048382,111.208803 L365.048382,105.378985 L376.708018,105.378985 L376.708018,111.208803 C376.708018,125.240572 365.289616,136.658974 351.257847,136.658974 Z M436.534012,135.694039 L414.762657,135.694039 C400.730888,135.694039 389.312486,124.275636 389.312486,110.243868 L389.312486,72.9330328 C389.312486,58.9012641 400.730888,47.4828621 414.762657,47.4828621 L436.534012,47.4828621 C450.56578,47.4828621 461.984183,58.9012641 461.984183,72.9330328 L461.984183,110.263971 C461.96408,124.295739 450.56578,135.694039 436.534012,135.694039 Z M414.762657,59.142498 C407.163791,59.142498 400.972122,65.3341667 400.972122,72.9330328 L400.972122,110.263971 C400.972122,117.862837 407.163791,124.054505 414.762657,124.054505 L436.534012,124.054505 C444.132878,124.054505 450.324547,117.862837 450.324547,110.263971 L450.324547,72.9330328 C450.324547,65.3341667 444.132878,59.142498 436.534012,59.142498 L414.762657,59.142498 Z M475.111324,54.8203916 L486.77096,54.8203916 L486.77096,134.266738 L475.111324,134.266738 L475.111324,54.8203916 Z M475.111324,29.9129969 L486.77096,29.9129969 L486.77096,40.8288285 L475.111324,40.8288285 L475.111324,29.9129969 Z M500.340364,29.5310433 L512,29.5310433 L512,134.286841 L500.340364,134.286841 L500.340364,29.5310433 Z" fill="#1C1E21"></path>
    </g>
</svg>

<svg preserveAspectRatio="xMidYMid" viewBox="0 0 512 182" xmlns="http://www.w3.org/2000/svg">
  <g fill="#1C1E21">
    <path d="M38.94 0c8.464 0 15.32 6.855 15.32 15.318 0 6.31-3.823 11.731-9.283 14.082l-.166.07v6.454c0 6.229 4.63 11.532 10.79 12.398l.187.025 1.85.242c10.01 1.266 17.77 8.463 19.76 18.353 1.99 9.891-2.352 19.54-11.097 24.606a31.809 31.809 0 0 1-12.68 4.099l-.226.022-27.802 2.614a19.4 19.4 0 0 0-7.98 2.553c-5.046 2.915-6.032 7.96-5.268 11.7.757 3.701 3.582 7.915 9.236 8.701l2.022.264c12.18 1.513 21.385 11.833 21.568 24.074l.002.371v5.991c5.368 2.372 9.127 7.76 9.127 14.012 0 8.463-6.855 15.318-15.318 15.318-8.464 0-15.319-6.855-15.319-15.318 0-6.29 3.803-11.711 9.243-14.062l.165-.07v-5.87c0-6.23-4.63-11.533-10.789-12.4l-.187-.024-1.85-.241c-10.01-1.267-17.77-8.464-19.76-18.354-2.01-9.89 2.352-19.54 11.096-24.606a31.809 31.809 0 0 1 12.681-4.099l.225-.022 27.803-2.613a19.4 19.4 0 0 0 7.98-2.554c5.046-2.914 6.031-7.96 5.267-11.7-.756-3.701-3.58-7.915-9.235-8.701l-2.022-.264C42.1 58.856 32.895 48.537 32.712 36.295l-.002-.371V29.31c-5.348-2.392-9.087-7.76-9.087-13.992C23.622 6.855 30.477 0 38.94 0Zm18.415 102.504 8.584 9.408c6.388 7.026 9.94 16.08 10.01 25.546v.287h-12.12a26.22 26.22 0 0 0-6.704-17.525l-.131-.146-14.595-16.002 11.66-1.105.368-.041c.874-.1 1.746-.214 2.606-.364l.323-.058Zm-44.367-58.84a26.22 26.22 0 0 0 6.703 17.524l.132.146 14.634 16.042L23.682 78.4l-.32.03a35.125 35.125 0 0 0-3.49.51l-.31.063-8.665-9.509A38.28 38.28 0 0 1 .887 43.95l-.001-.287h12.102Z"/>
    <path d="m181.007 47.744.237.004.24.005c3.985.114 11.016 1.21 16.731 6.866 3.92 3.86 6.353 9.288 6.895 15.279.503 5.709-.743 11.378-3.538 15.961-4.756 7.861-12.646 10.62-15.924 11.454l-.417.106 7.737 9.77c6.715 7.276 10.393 16.705 10.393 26.515v4.02h-11.64v-4.02c0-6.956-2.633-13.61-7.437-18.756l-.161-.16-11.016-13.892.804-.637c-3.824.94-7.587 1.883-11.276 2.81l-4.224 1.064c-5.025 1.266-10.172 2.573-15.479 3.88l-.12 29.711-11.66-.04.221-74.26c.02-8.523 7.056-15.439 15.7-15.439h.06c4.767.05 9.41-.01 13.94-.077l6.034-.09c4.49-.066 9.11-.123 13.9-.074Zm-12.654 11.717-8.244.122c-4.23.06-8.58.108-13.056.062-2.21.02-4 1.729-4.02 3.82l-.1 32.526 1.708-.426 1.84-.461c3.06-.767 6.074-1.529 9.036-2.27l1.594-.404c5.596-1.42 11.374-2.868 17.302-4.3l8.433-2.133.117-.03c1.962-.527 6.152-2.107 8.598-6.139 3.156-5.206 2.432-12.946-1.588-16.926-3.105-3.065-7.332-3.47-9.075-3.497l-.052-.001c-3.718-.04-7.378-.01-10.962.036l-1.531.02Zm118.415 76.233H246.06c-14.032 0-25.45-11.418-25.45-25.45V72.933c0-14.032 11.418-25.45 25.45-25.45h21.771c14.032 0 25.45 11.418 25.45 25.45v5.87c0 10.795-8.785 19.58-19.58 19.58H232.27v11.881c0 7.599 6.192 13.79 13.79 13.79h40.709v11.64Zm-54.499-48.97h41.452c4.363 0 7.92-3.559 7.92-7.92v-5.871c0-7.599-6.19-13.79-13.79-13.79H246.06c-7.6 0-13.79 6.191-13.79 13.79v13.79Zm118.989 49.935h-21.772c-14.031 0-25.45-11.418-25.45-25.45V73.878c0-14.032 11.419-25.45 25.45-25.45h21.772c14.032 0 25.45 11.418 25.45 25.45v5.83h-11.66v-5.83c0-7.599-6.191-13.79-13.79-13.79h-21.772c-7.598 0-13.79 6.191-13.79 13.79v37.33c0 7.6 6.192 13.791 13.79 13.791h21.772c7.599 0 13.79-6.191 13.79-13.79v-5.83h11.66v5.83c0 14.032-11.418 25.45-25.45 25.45Zm85.276-.965h-21.771c-14.032 0-25.45-11.418-25.45-25.45V72.933c0-14.032 11.418-25.45 25.45-25.45h21.771c14.032 0 25.45 11.418 25.45 25.45v37.331c-.02 14.032-11.418 25.43-25.45 25.43Zm-21.771-76.552c-7.6 0-13.79 6.192-13.79 13.791v37.331c0 7.599 6.19 13.79 13.79 13.79h21.771c7.599 0 13.79-6.191 13.79-13.79V72.933c0-7.599-6.191-13.79-13.79-13.79h-21.771Zm60.348-4.322h11.66v79.447h-11.66V54.82Zm0-24.907h11.66v10.916h-11.66V29.913Zm25.23-.382H512v104.756h-11.66V29.53Z"/>
  </g>
</svg>
